X: 1
T: Pelles Rullpolska
C:  Pelle Schenell (1855-1946)
O: H\"alsingland, Sweden
R: polska
Z: 2021 John Chambers <jc:trillian.mit.edu>
M: 3/4
L: 1/16
K: Bb
|:\
"Bb"B2dB F2BF D2FD | B,3D F2B2 d2B2 | "F7"c2ec A2cA F2GA |[1,3 "Bb"B2d2 (cB)AG "F7"F4 :|[2,4 "Bb"B4 B8 :|
|:\
"Bb"(DB)(fB) (DB)(fB) (DB)(fB) | "Eb"(EB)(gB) (EB)(gB) (EB)(gB) | "C"(=Ec)(gc) (Ec)(gc) (Ec)(gc) |
"F"(Fc)(ac) (Fc)(ac) (Fc)(ac) | "Bb"b3a g2f2 e2d2 | "Gm"g3f e2d2 c2B2 | "F7"A3G F2E2 DEDC | "Bb"B,4 B,8 :|
